X: 19201
T: Island Of Woods, The
R: reel
M: 4/4
K: Dmajor
dc|B2 BA A2 AB|A2 AB AFdc|B2 BA B3 A|B2 Bc BA d/2e/2f|
g2 gf e2 fe|f2 ed d2 cA|d2 cA GAFD|1 E5:|2 E4 z E||
F/2G/2A|BAAF E3 D|EFED D2 F/2G/2A|BdAd GAFD|E5 F/2G/2A|
BAAF E3 D|EFED D2 F/2G/2A|GAFD E2 dc|A4||

